icon-svg/marquee-shutter.svg

<svg xmlns="http://www.w3.org/2000/svg" fill="#44739e" viewBox="0 0 24 24"><path d="M16.916 5.517h-.774V4.2h.774zm-.388 6.2a2.584 2.584 0 1 0-2.584-2.584 2.584 2.584 0 0 0 2.584 2.587zm-3.794.79.547.547.934-.934-.547-.547zm7.782-6.64-.547-.548-.934.935.547.547zm-.547 7.186.548-.547-.934-.934-.548.547zm-3.827.922h.774v-1.318h-.774ZM2.5 19.8h19v-.87h-19ZM20.179 8.749v.774H21.5v-.774Zm-7.317 0h-1.321v.774h1.321zm5.222 6.4H5.8L2.935 18.1h17.743Zm-3.869-8.893-.934-.934-.547.547.934.935Z"/></svg>

<?xml version="1.0" encoding="UTF-8"?>
<svg width="24px" fill="#44739e" height="24px" viewBox="0 0 24 24" version="1.1" xmlns="http://www.w3.org/2000/svg" xmlns:xlink="http://www.w3.org/1999/xlink">
            <path d="M 16.916,5.517 H 16.142 V 4.2 h 0.774 z m -0.388,6.2 a 2.584,2.584 0 1 0 -2.584,-2.584 2.584,2.584 0 0 0 2.584,2.587 z m -3.794,0.79 0.547,0.547 0.934,-0.934 -0.547,-0.547 z m 7.782,-6.64 -0.547,-0.548 -0.934,0.935 0.547,0.547 z m -0.547,7.186 0.548,-0.547 -0.934,-0.934 -0.548,0.547 z m -3.827,0.922 h 0.774 V 12.657 H 16.142 Z M 2.5,19.8 h 19 V 18.93 H 2.5 Z M 20.179,8.749 V 9.523 H 21.5 V 8.749 Z m -7.317,0 h -1.321 v 0.774 h 1.321 z m 5.222,6.4 H 5.8 L 2.935,18.1 H 20.678 Z M 14.215,6.256 13.281,5.322 12.734,5.869 13.668,6.804 Z"/>

</svg>
